icons/admissions.svg

<svg width="48" height="48" viewBox="0 0 48 48" fill="none" xmlns="http://www.w3.org/2000/svg">
<path fill-rule="evenodd" clip-rule="evenodd" d="M22.8353 10.0654C22.1878 9.84955 21.5191 10.3315 21.5191 11.0141V12.5819H15V35.3986H21.5191V37.2128C21.5191 37.8953 22.1878 38.3773 22.8353 38.1614L31.7004 35.2064C32.1087 35.0703 32.3842 34.6882 32.3842 34.2577V13.9691C32.3842 13.5387 32.1087 13.1565 31.7004 13.0204L22.8353 10.0654ZM25.8651 23.3891C25.8651 24.1892 25.5408 24.8378 25.1408 24.8378C24.7407 24.8378 24.4164 24.1892 24.4164 23.3891C24.4164 22.589 24.7407 21.9404 25.1408 21.9404C25.5408 21.9404 25.8651 22.589 25.8651 23.3891ZM21.5191 14.5819H17V33.3986H21.5191V14.5819Z" fill="black"/>
<path fill-rule="evenodd" clip-rule="evenodd" d="M9 6C7.34315 6 6 7.34315 6 9V39C6 40.6569 7.34315 42 9 42H39C40.6569 42 42 40.6569 42 39V9C42 7.34315 40.6569 6 39 6H9ZM40 9C40 8.44771 39.5523 8 39 8H9C8.44771 8 8 8.44772 8 9V39C8 39.5523 8.44772 40 9 40H39C39.5523 40 40 39.5523 40 39V9Z" fill="black"/>
</svg>

<svg
  xmlns="http://www.w3.org/2000/svg"
  width="24"
  height="24"
  viewBox="0 0 24 24"
  fill="none"
  stroke="currentColor"
  stroke-width="2"
  stroke-linecap="round"
  stroke-linejoin="round"
>
  <path
    fill-rule="evenodd"
    d="M22.835 10.065a1 1 0 0 0-1.316.95v1.567H15v22.817h6.52v1.814a1 1 0 0 0 1.315.948l8.865-2.955a1 1 0 0 0 .684-.948V13.969a1 1 0 0 0-.684-.949zm3.03 13.324c0 .8-.324 1.449-.724 1.449s-.725-.649-.725-1.449.325-1.449.725-1.449.724.649.724 1.45m-4.346-8.807H17v18.817h4.52z"
    clip-rule="evenodd"
  />
  <path
    fill-rule="evenodd"
    d="M9 6a3 3 0 0 0-3 3v30a3 3 0 0 0 3 3h30a3 3 0 0 0 3-3V9a3 3 0 0 0-3-3zm31 3a1 1 0 0 0-1-1H9a1 1 0 0 0-1 1v30a1 1 0 0 0 1 1h30a1 1 0 0 0 1-1z"
    clip-rule="evenodd"
  />
</svg>
